; generated by Slic3r 0.9.5 on 2012-11-28 at 17:00:49

; layer_height = 0.4
; perimeters = 3
; top_solid_layers = 3
; bottom_solid_layers = 3
; fill_density = 0.4
; perimeter_speed = 30
; infill_speed = 60
; travel_speed = 130
; scale = 1
; nozzle_diameter = 0.5
; filament_diameter = 3
; extrusion_multiplier = 1
; perimeters extrusion width = 0.53mm
; infill extrusion width = 0.53mm
; first layer extrusion width = 0.80mm

$UseEmbeddedMaterial "Orange PLA Filament"

M104 S200 ; set temperature
G28 ; home all axes
M109 S200 ; wait for temperature to be reached
G90 ; use absolute coordinates
G21 ; set units to millimeters
G92 E0
M82 ; use absolute distances for extrusion
G1 F1800.000 E-1.00000
G92 E0
G1 X109.873 Y109.869 F7800.000
G1 F1800.000 E1.00000
G1 X111.481 Y109.869 F540.000 E1.06695
G1 X111.481 Y111.481 E1.13407
G1 X109.872 Y111.481 E1.20108
G1 X109.873 Y110.889 E1.22572
G1 X109.873 Y109.869 E1.26820
G1 X109.653 Y109.101 F7800.000
G1 X112.249 Y109.101 F540.000 E1.37629
G1 X112.249 Y112.249 E1.50734
G1 X109.102 Y112.249 E1.63834
G1 X109.105 Y110.888 E1.69499
G1 X109.105 Y109.103 E1.76930
G1 X109.653 Y109.101 E1.79208
G1 F1800.000 E0.79208
G92 E0
G1 X90.131 Y109.873 F7800.000
G1 F1800.000 E1.00000
G1 X90.131 Y111.481 F540.000 E1.06696
G1 X88.519 Y111.481 E1.13408
G1 X88.519 Y109.871 E1.20110
G1 X89.110 Y109.873 E1.22573
G1 X90.131 Y109.873 E1.26822
G1 X90.899 Y109.653 F7800.000
G1 X90.899 Y112.249 F540.000 E1.37630
G1 X87.751 Y112.249 E1.50735
G1 X87.751 Y109.102 E1.63836
G1 X89.111 Y109.105 E1.69499
G1 X90.897 Y109.105 E1.76931
G1 X90.899 Y109.653 E1.79210
G1 F1800.000 E0.79210
G92 E0
G1 X90.127 Y90.131 F7800.000
G1 F1800.000 E1.00000
G1 X88.519 Y90.131 F540.000 E1.06695
G1 X88.519 Y88.519 E1.13407
G1 X90.128 Y88.519 E1.20108
G1 X90.127 Y89.111 E1.22572
G1 X90.127 Y90.131 E1.26820
G1 X90.347 Y90.899 F7800.000
G1 X87.751 Y90.899 F540.000 E1.37629
G1 X87.751 Y87.751 E1.50734
G1 X90.898 Y87.751 E1.63834
G1 X90.895 Y89.112 E1.69499
G1 X90.895 Y90.897 E1.76930
G1 X90.347 Y90.899 E1.79208
G1 F1800.000 E0.79208
G92 E0
G1 X109.869 Y90.127 F7800.000
G1 F1800.000 E1.00000
G1 X109.869 Y88.519 F540.000 E1.06696
G1 X111.481 Y88.519 E1.13408
G1 X111.481 Y90.129 E1.20110
G1 X110.889 Y90.127 E1.22573
G1 X109.869 Y90.127 E1.26822
G1 X109.101 Y90.347 F7800.000
G1 X109.101 Y87.751 F540.000 E1.37630
G1 X112.249 Y87.751 E1.50735
G1 X112.249 Y90.898 E1.63836
G1 X110.889 Y90.895 E1.69499
G1 X109.103 Y90.895 E1.76931
G1 X109.101 Y90.347 E1.79210
G1 F1800.000 E0.79210
G92 E0
G1 X110.901 Y110.942 F7800.000
G1 F1800.000 E1.00000
G1 X110.413 Y110.453 F1080.000 E1.02878
G1 F1800.000 E0.02878
G92 E0
G1 X110.897 Y89.588 F7800.000
G1 F1800.000 E1.00000
G1 X110.408 Y89.099 F1080.000 E1.02878
G1 F1800.000 E0.02878
G92 E0
G1 X89.547 Y89.592 F7800.000
G1 F1800.000 E1.00000
G1 X89.058 Y89.103 F1080.000 E1.02878
G1 F1800.000 E0.02878
G92 E0
G1 X89.547 Y110.942 F7800.000
G1 F1800.000 E1.00000
G1 X89.058 Y110.453 F1080.000 E1.02878
G1 F1800.000 E0.02878
G92 E0
G1 Z0.800 F7800.000
G1 X110.111 Y110.611
G1 F1800.000 E1.00000
G1 X110.111 Y110.111 F1800.000 E1.01472
G1 X110.613 Y110.111 E1.02947
G1 X111.240 Y110.108 E1.04793
G1 X111.240 Y111.240 E1.08121
G1 X110.110 Y111.240 E1.11446
G1 X110.111 Y110.611 E1.13296
G1 X109.589 Y110.611 F7800.000
G1 X109.588 Y109.588 F1800.000 E1.16303
G1 X110.612 Y109.589 E1.19312
G1 X111.763 Y109.584 E1.22696
G1 X111.763 Y111.763 E1.29103
G1 X109.586 Y111.763 E1.35503
G1 X109.589 Y110.611 E1.38890
G1 X109.067 Y110.610 F7800.000
G1 X109.066 Y109.065 F1800.000 E1.43433
G1 X110.611 Y109.066 E1.47976
G1 X111.652 Y109.062 E1.51038
G1 X112.285 Y109.062 E1.52898
G1 X112.285 Y112.285 E1.62375
G1 X109.063 Y112.285 E1.71851
G1 X109.067 Y110.610 E1.76775
G1 F1800.000 E0.76775
G92 E0
G1 X89.889 Y110.613 F7800.000
G1 F1800.000 E1.00000
G1 X89.892 Y111.240 F1800.000 E1.01846
G1 X88.760 Y111.240 E1.05174
G1 X88.760 Y110.110 E1.08499
G1 X89.389 Y110.111 E1.10348
G1 X89.889 Y110.111 E1.11820
G1 X89.889 Y110.613 E1.13296
G1 X90.411 Y110.612 F7800.000
G1 X90.416 Y111.763 F1800.000 E1.16681
G1 X88.237 Y111.763 E1.23087
G1 X88.237 Y109.586 E1.29487
G1 X89.389 Y109.589 E1.32874
G1 X90.412 Y109.588 E1.35881
G1 X90.411 Y110.612 E1.38890
G1 X90.933 Y110.610 F7800.000
G1 X90.938 Y111.652 F1800.000 E1.41953
G1 X90.938 Y112.285 E1.43814
G1 X87.715 Y112.285 E1.53291
G1 X87.715 Y109.063 E1.62766
G1 X89.390 Y109.066 E1.67690
G1 X90.934 Y109.065 E1.72232
G1 X90.933 Y110.610 E1.76776
G1 F1800.000 E0.76776
G92 E0
G1 X89.889 Y89.889 F7800.000
G1 F1800.000 E1.00000
G1 X89.387 Y89.889 F1800.000 E1.01475
G1 X88.760 Y89.892 E1.03321
G1 X88.760 Y88.760 E1.06649
G1 X89.890 Y88.760 E1.09974
G1 X89.889 Y89.389 E1.11823
G1 X89.889 Y89.889 E1.13295
G1 X90.411 Y89.389 F7800.000
G1 X90.412 Y90.412 F1800.000 E1.16303
G1 X89.388 Y90.411 E1.19312
G1 X88.237 Y90.416 E1.22696
G1 X88.237 Y88.237 E1.29103
G1 X90.414 Y88.237 E1.35503
G1 X90.411 Y89.389 E1.38890
G1 X90.933 Y89.390 F7800.000
G1 X90.934 Y90.935 F1800.000 E1.43433
G1 X89.389 Y90.934 E1.47975
G1 X88.348 Y90.938 E1.51038
G1 X87.715 Y90.938 E1.52898
G1 X87.715 Y87.715 E1.62375
G1 X90.937 Y87.715 E1.71851
G1 X90.933 Y89.390 E1.76775
G1 F1800.000 E0.76775
G92 E0
G1 X110.111 Y89.387 F7800.000
G1 F1800.000 E1.00000
G1 X110.108 Y88.760 F1800.000 E1.01846
G1 X111.240 Y88.760 E1.05174
G1 X111.240 Y89.890 E1.08499
G1 X110.611 Y89.889 E1.10348
G1 X110.111 Y89.889 E1.11820
G1 X110.111 Y89.387 E1.13296
G1 X109.589 Y89.388 F7800.000
G1 X109.584 Y88.237 F1800.000 E1.16680
G1 X111.763 Y88.237 E1.23087
G1 X111.763 Y90.414 E1.29487
G1 X110.611 Y90.411 E1.32874
G1 X109.588 Y90.412 E1.35881
G1 X109.589 Y89.388 E1.38890
G1 X109.067 Y89.389 F7800.000
G1 X109.062 Y88.348 F1800.000 E1.41953
G1 X109.062 Y87.715 E1.43814
G1 X112.285 Y87.715 E1.53291
G1 X112.285 Y90.937 E1.62766
G1 X110.610 Y90.934 E1.67690
G1 X109.066 Y90.935 E1.72232
G1 X109.067 Y89.389 E1.76776
G1 F1800.000 E0.76776
G92 E0
G1 X110.883 Y110.550 F7800.000
G1 F1800.000 E1.00000
G1 X110.550 Y110.883 F3600.000 E1.01383
G1 F1800.000 E0.01383
G92 E0
G1 X110.883 Y89.199 F7800.000
G1 F1800.000 E1.00000
G1 X110.550 Y89.532 F3600.000 E1.01383
G1 F1800.000 E0.01383
G92 E0
G1 X89.532 Y89.199 F7800.000
G1 F1800.000 E1.00000
G1 X89.199 Y89.532 F3600.000 E1.01383
G1 F1800.000 E0.01383
G92 E0
G1 X89.532 Y110.550 F7800.000
G1 F1800.000 E1.00000
G1 X89.199 Y110.883 F3600.000 E1.01383
G1 F1800.000 E0.01383
G92 E0
G1 Z1.200 F7800.000
G1 X110.187 Y111.139
G1 F1800.000 E1.00000
G1 X110.188 Y110.187 F1800.000 E1.02799
G1 X111.139 Y110.186 E1.05594
G1 X111.139 Y111.139 E1.08396
G1 X110.187 Y111.139 E1.11193
G1 X109.666 Y109.665 F7800.000
G1 X111.661 Y109.663 F1800.000 E1.17058
G1 X111.661 Y111.661 E1.22934
G1 X109.664 Y111.661 E1.28806
G1 X109.666 Y109.665 E1.34676
G1 X109.522 Y109.143 F7800.000
G1 X112.183 Y109.140 F1800.000 E1.42500
G1 X112.183 Y112.183 E1.51449
G1 X109.140 Y112.183 E1.60397
G1 X109.144 Y109.144 E1.69334
G1 X109.522 Y109.143 E1.70446
G1 F1800.000 E0.70446
G92 E0
G1 X89.813 Y110.188 F7800.000
G1 F1800.000 E1.00000
G1 X89.814 Y111.139 F1800.000 E1.02795
G1 X88.861 Y111.139 E1.05597
G1 X88.861 Y110.187 E1.08393
G1 X89.813 Y110.188 E1.11192
G1 X90.335 Y109.666 F7800.000
G1 X90.337 Y111.661 F1800.000 E1.17057
G1 X88.339 Y111.661 E1.22933
G1 X88.339 Y109.664 E1.28806
G1 X90.335 Y109.666 E1.34674
G1 F1800.000 E0.34674
G92 E0
G1 X90.860 Y112.183 F7800.000
G1 F1800.000 E1.00000
G1 X87.817 Y112.183 F1800.000 E1.08949
G1 X87.817 Y109.140 E1.17897
G1 X90.856 Y109.144 E1.26834
G1 X90.860 Y112.183 E1.35770
G1 F1800.000 E0.35770
G92 E0
G1 X89.812 Y89.813 F7800.000
G1 F1800.000 E1.00000
G1 X88.861 Y89.814 F1800.000 E1.02795
G1 X88.861 Y88.861 E1.05597
G1 X89.813 Y88.861 E1.08394
G1 X89.812 Y89.813 E1.11193
G1 X90.334 Y90.335 F7800.000
G1 X88.339 Y90.337 F1800.000 E1.17058
G1 X88.339 Y88.339 E1.22934
G1 X90.336 Y88.339 E1.28806
G1 X90.334 Y90.335 E1.34676
G1 X90.478 Y90.857 F7800.000
G1 X87.817 Y90.860 F1800.000 E1.42500
G1 X87.817 Y87.817 E1.51449
G1 X90.860 Y87.817 E1.60397
G1 X90.856 Y90.856 E1.69334
G1 X90.478 Y90.857 E1.70446
G1 F1800.000 E0.70446
G92 E0
G1 X110.187 Y89.812 F7800.000
G1 F1800.000 E1.00000
G1 X110.186 Y88.861 F1800.000 E1.02795
G1 X111.139 Y88.861 E1.05597
G1 X111.139 Y89.813 E1.08393
G1 X110.187 Y89.812 E1.11192
G1 X109.665 Y90.334 F7800.000
G1 X109.663 Y88.339 F1800.000 E1.17057
G1 X111.661 Y88.339 E1.22933
G1 X111.661 Y90.336 E1.28805
G1 X109.665 Y90.334 E1.34674
G1 F1800.000 E0.34674
G92 E0
G1 X109.140 Y87.817 F7800.000
G1 F1800.000 E1.00000
G1 X112.183 Y87.817 F1800.000 E1.08949
G1 X112.183 Y90.860 E1.17897
G1 X109.144 Y90.856 E1.26834
G1 X109.140 Y87.817 E1.35770
G1 F1800.000 E0.35770
G92 E0
G1 Z1.600 F7800.000
G1 X110.251 Y110.251
G1 F1800.000 E1.00000
G1 X111.037 Y110.249 F1800.000 E1.02311
G1 X111.037 Y111.037 E1.04628
G1 X110.249 Y111.037 E1.06944
G1 X110.251 Y110.251 E1.09255
G1 X110.241 Y109.729 F7800.000
G1 X111.559 Y109.725 F1800.000 E1.13130
G1 X111.559 Y111.559 E1.18524
G1 X109.726 Y111.559 E1.23915
G1 X109.729 Y110.241 E1.27791
G1 X109.728 Y109.728 E1.29298
G1 X110.241 Y109.729 E1.30806
G1 X110.241 Y109.206 F7800.000
G1 X111.554 Y109.203 F1800.000 E1.34668
G1 X112.081 Y109.202 E1.36219
G1 X112.081 Y112.081 E1.44686
G1 X109.202 Y112.081 E1.53152
G1 X109.206 Y110.240 E1.58566
G1 X109.206 Y109.206 E1.61609
G1 X110.241 Y109.206 E1.64652
G1 F1800.000 E0.64652
G92 E0
G1 X89.749 Y110.251 F7800.000
G1 F1800.000 E1.00000
G1 X89.751 Y111.037 F1800.000 E1.02311
G1 X88.963 Y111.037 E1.04628
G1 X88.963 Y110.249 E1.06944
G1 X89.749 Y110.251 E1.09254
G1 X90.271 Y110.241 F7800.000
G1 X90.275 Y111.559 F1800.000 E1.13130
G1 X88.441 Y111.559 E1.18524
G1 X88.441 Y109.726 E1.23915
G1 X89.759 Y109.729 E1.27791
G1 X90.272 Y109.728 E1.29298
G1 X90.271 Y110.241 E1.30806
G1 X90.794 Y110.240 F7800.000
G1 X90.798 Y112.081 F1800.000 E1.36219
G1 X87.919 Y112.081 E1.44686
G1 X87.919 Y109.202 E1.53152
G1 X89.760 Y109.206 E1.58566
G1 X90.794 Y109.206 E1.61609
G1 X90.794 Y110.240 E1.64652
G1 F1800.000 E0.64652
G92 E0
G1 X89.749 Y89.749 F7800.000
G1 F1800.000 E1.00000
G1 X88.963 Y89.751 F1800.000 E1.02311
G1 X88.963 Y88.963 E1.04628
G1 X89.751 Y88.963 E1.06944
G1 X89.749 Y89.749 E1.09255
G1 X89.759 Y90.271 F7800.000
G1 X88.441 Y90.275 F1800.000 E1.13130
G1 X88.441 Y88.441 E1.18524
G1 X90.274 Y88.441 E1.23915
G1 X90.271 Y89.759 E1.27792
G1 X90.272 Y90.272 E1.29298
G1 X89.759 Y90.271 E1.30806
G1 X89.760 Y90.794 F7800.000
G1 X88.446 Y90.797 F1800.000 E1.34668
G1 X87.919 Y90.798 E1.36220
G1 X87.919 Y87.919 E1.44686
G1 X90.798 Y87.919 E1.53152
G1 X90.794 Y89.760 E1.58566
G1 X90.794 Y90.794 E1.61609
G1 X89.760 Y90.794 E1.64652
G1 F1800.000 E0.64652
G92 E0
G1 X110.251 Y89.749 F7800.000
G1 F1800.000 E1.00000
G1 X110.249 Y88.963 F1800.000 E1.02311
G1 X111.037 Y88.963 E1.04628
G1 X111.037 Y89.751 E1.06944
G1 X110.251 Y89.749 E1.09254
G1 X109.729 Y89.759 F7800.000
G1 X109.725 Y88.441 F1800.000 E1.13130
G1 X110.491 Y88.441 E1.15383
G1 X111.559 Y88.441 E1.18523
G1 X111.559 Y90.274 E1.23914
G1 X110.241 Y90.271 E1.27791
G1 X109.728 Y90.272 E1.29298
G1 X109.729 Y89.759 E1.30806
G1 X109.206 Y89.759 F7800.000
G1 X109.202 Y87.919 F1800.000 E1.36219
G1 X110.491 Y87.919 E1.40010
G1 X112.081 Y87.919 E1.44686
G1 X112.081 Y90.798 E1.53152
G1 X110.240 Y90.794 E1.58565
G1 X109.206 Y90.794 E1.61608
G1 X109.206 Y89.759 E1.64652
G1 F1800.000 E0.64652
G92 E0
G1 Z2.000 F7800.000
G1 X110.290 Y110.290
G1 F1800.000 E1.00000
G1 X110.935 Y110.289 F1800.000 E1.01897
G1 X110.935 Y110.935 E1.03798
G1 X110.289 Y110.935 E1.05699
G1 X110.290 Y110.290 E1.07595
G1 X109.769 Y109.769 F7800.000
G1 X111.457 Y109.765 F1800.000 E1.12561
G1 X111.457 Y111.457 E1.17536
G1 X109.765 Y111.457 E1.22512
G1 X109.769 Y109.769 E1.27477
G1 X109.247 Y109.248 F7800.000
G1 X111.980 Y109.242 F1800.000 E1.35512
G1 X111.980 Y111.980 E1.43562
G1 X109.242 Y111.980 E1.51612
G1 X109.247 Y109.248 E1.59646
G1 F1800.000 E0.59646
G92 E0
G1 X89.710 Y110.290 F7800.000
G1 F1800.000 E1.00000
G1 X89.711 Y110.935 F1800.000 E1.01897
G1 X89.065 Y110.935 E1.03797
G1 X89.065 Y110.289 E1.05698
G1 X89.710 Y110.290 E1.07595
G1 X90.231 Y109.769 F7800.000
G1 X90.235 Y111.457 F1800.000 E1.12561
G1 X88.543 Y111.457 E1.17536
G1 X88.543 Y109.765 E1.22512
G1 X90.231 Y109.769 E1.27477
G1 X90.753 Y109.248 F7800.000
G1 X90.758 Y111.980 F1800.000 E1.35511
G1 X88.020 Y111.980 E1.43562
G1 X88.020 Y109.242 E1.51612
G1 X90.753 Y109.248 E1.59647
G1 F1800.000 E0.59647
G92 E0
G1 X89.710 Y89.710 F7800.000
G1 F1800.000 E1.00000
G1 X89.065 Y89.711 F1800.000 E1.01897
G1 X89.065 Y89.065 E1.03798
G1 X89.711 Y89.065 E1.05699
G1 X89.710 Y89.710 E1.07595
G1 X90.231 Y90.231 F7800.000
G1 X88.543 Y90.235 F1800.000 E1.12561
G1 X88.543 Y88.543 E1.17536
G1 X90.235 Y88.543 E1.22512
G1 X90.231 Y90.231 E1.27477
G1 X90.753 Y90.752 F7800.000
G1 X88.020 Y90.758 F1800.000 E1.35512
G1 X88.020 Y88.020 E1.43562
G1 X90.758 Y88.020 E1.51612
G1 X90.753 Y90.752 E1.59646
G1 F1800.000 E0.59646
G92 E0
G1 X110.290 Y89.710 F7800.000
G1 F1800.000 E1.00000
G1 X110.289 Y89.065 F1800.000 E1.01897
G1 X110.935 Y89.065 E1.03797
G1 X110.935 Y89.711 E1.05698
G1 X110.290 Y89.710 E1.07595
G1 X109.769 Y90.231 F7800.000
G1 X109.765 Y88.543 F1800.000 E1.12561
G1 X111.457 Y88.543 E1.17536
G1 X111.457 Y90.235 E1.22512
G1 X109.769 Y90.231 E1.27477
G1 X109.247 Y90.752 F7800.000
G1 X109.242 Y88.020 F1800.000 E1.35511
G1 X111.980 Y88.020 E1.43562
G1 X111.980 Y90.758 E1.51612
G1 X109.247 Y90.752 E1.59647
G1 F1800.000 E0.59647
G92 E0
G1 Z2.400 F7800.000
G1 X109.795 Y109.795
G1 F1800.000 E1.00000
G1 X111.356 Y109.792 F1800.000 E1.04590
G1 X111.356 Y111.356 E1.09189
G1 X109.792 Y111.356 E1.13788
G1 X109.795 Y109.795 E1.18377
G1 X109.273 Y109.273 F7800.000
G1 X111.878 Y109.268 F1800.000 E1.26036
G1 X111.878 Y111.878 E1.33710
G1 X109.268 Y111.878 E1.41383
G1 X109.273 Y109.273 E1.49042
G1 F1800.000 E0.49042
G92 E0
G1 X90.205 Y109.795 F7800.000
G1 F1800.000 E1.00000
G1 X90.208 Y111.356 F1800.000 E1.04590
G1 X88.644 Y111.356 E1.09188
G1 X88.644 Y109.792 E1.13787
G1 X90.205 Y109.795 E1.18377
G1 X90.727 Y109.273 F7800.000
G1 X90.732 Y111.878 F1800.000 E1.26036
G1 X88.122 Y111.878 E1.33709
G1 X88.122 Y109.268 E1.41383
G1 X90.727 Y109.273 E1.49042
G1 F1800.000 E0.49042
G92 E0
G1 X90.205 Y90.205 F7800.000
G1 F1800.000 E1.00000
G1 X88.644 Y90.208 F1800.000 E1.04590
G1 X88.644 Y88.644 E1.09189
G1 X90.208 Y88.644 E1.13788
G1 X90.205 Y90.205 E1.18377
G1 X90.727 Y90.727 F7800.000
G1 X88.122 Y90.732 F1800.000 E1.26036
G1 X88.122 Y88.122 E1.33710
G1 X90.732 Y88.122 E1.41383
G1 X90.727 Y90.727 E1.49042
G1 F1800.000 E0.49042
G92 E0
G1 X109.795 Y90.205 F7800.000
G1 F1800.000 E1.00000
G1 X109.792 Y88.644 F1800.000 E1.04590
G1 X111.356 Y88.644 E1.09188
G1 X111.356 Y90.208 E1.13787
G1 X109.795 Y90.205 E1.18377
G1 X109.273 Y90.727 F7800.000
G1 X109.268 Y88.122 F1800.000 E1.26036
G1 X111.878 Y88.122 E1.33709
G1 X111.878 Y90.732 E1.41383
G1 X109.273 Y90.727 E1.49042
G1 F1800.000 E0.49042
G92 E0
G1 X110.942 Y110.460 F7800.000
G1 F1800.000 E1.00000
G1 X110.460 Y110.942 F3600.000 E1.02798
G1 F1800.000 E0.02798
G92 E0
G1 X89.793 Y110.460 F7800.000
G1 F1800.000 E1.00000
G1 X89.311 Y110.942 F3600.000 E1.02798
G1 F1800.000 E0.02798
G92 E0
G1 X89.793 Y89.311 F7800.000
G1 F1800.000 E1.00000
G1 X89.311 Y89.792 F3600.000 E1.02798
G1 F1800.000 E0.02798
G92 E0
G1 X110.942 Y89.311 F7800.000
G1 F1800.000 E1.00000
G1 X110.460 Y89.793 F3600.000 E1.02798
G1 F1800.000 E0.02798
G92 E0
G1 Z2.800 F7800.000
G1 X109.799 Y109.800
G1 F1800.000 E1.00000
G1 X111.254 Y109.796 F1800.000 E1.04278
G1 X111.254 Y111.254 E1.08566
