$Message "Hide CNC Editor for faster simulations" 5
$UseEmbeddedMaterial "Yellow PLA Filament"
; generated by Slic3r 0.9.5 on 2012-11-29 at 07:20:37

; layer_height = 0.4
; perimeters = 3
; top_solid_layers = 3
; bottom_solid_layers = 3
; fill_density = 0.4
; perimeter_speed = 30
; infill_speed = 60
; travel_speed = 130
; scale = 1
; nozzle_diameter = 0.5
; filament_diameter = 3
; extrusion_multiplier = 1
; perimeters extrusion width = 0.53mm
; infill extrusion width = 0.53mm
; first layer extrusion width = 0.80mm

M104 S200 ; set temperature
G28 ; home all axes
M109 S200 ; wait for temperature to be reached
G90 ; use absolute coordinates
G21 ; set units to millimeters
G92 E0
M82 ; use absolute distances for extrusion
G1 F1800.000 E-1.00000
G92 E0

G1 X75.140 Y91.011 F7800.000
G1 F1800.000 E1.00000
G1 X75.981 Y90.276 F540.000 E1.04646
G1 X76.883 Y89.620 E1.09291
G1 X77.841 Y89.048 E1.13937
G1 X78.847 Y88.564 E1.18583
G1 X79.295 Y88.396 E1.20575
G1 X79.295 Y88.396 E1.20575
G1 X79.892 Y88.172 E1.23229
G1 X80.968 Y87.875 E1.27874
G1 X82.066 Y87.675 E1.32520
G1 X83.177 Y87.575 E1.37166
G1 X84.293 Y87.575 E1.41811
G1 X85.161 Y87.653 E1.45440
G1 X85.161 Y87.631 E1.45533
G1 X85.405 Y87.675 E1.46562
G1 X85.405 Y87.675 E1.46562
G1 X86.503 Y87.875 E1.51208
G1 X87.579 Y88.172 E1.55854
G1 X88.624 Y88.564 E1.60499
G1 X89.629 Y89.048 E1.65145
G1 X90.587 Y89.620 E1.69791
G1 X91.490 Y90.276 E1.74437
G1 X92.330 Y91.011 E1.79082
G1 X93.102 Y91.817 E1.83728
G1 X93.797 Y92.690 E1.88374
G1 X94.412 Y93.621 E1.93019
G1 X95.741 Y96.091 E2.04692
G1 X95.529 Y96.091 E2.05574
G1 X95.725 Y96.692 E2.08205
G1 X95.973 Y97.780 E2.12850
G1 X96.123 Y98.886 E2.17496
G1 X96.173 Y100.002 E2.22147
G1 X96.120 Y101.148 E2.26924
G1 X95.961 Y102.286 E2.31706
G1 X95.698 Y103.404 E2.36489
G1 X95.333 Y104.493 E2.41271
G1 X94.869 Y105.544 E2.46053
G1 X94.310 Y106.548 E2.50836
G1 X93.661 Y107.496 E2.55618
G1 X92.927 Y108.380 E2.60400
G1 X92.114 Y109.192 E2.65183
G1 X91.231 Y109.926 E2.69965
G1 X90.283 Y110.575 E2.74747
G1 X89.279 Y111.134 E2.79529
G1 X88.228 Y111.598 E2.84312
G1 X87.139 Y111.963 E2.89094
G1 X86.021 Y112.226 E2.93876
G1 X84.883 Y112.385 E2.98659
G1 X83.735 Y112.438 E3.03441
G1 X82.588 Y112.385 E3.08223
G1 X81.450 Y112.226 E3.13005
G1 X80.332 Y111.963 E3.17788
G1 X79.242 Y111.598 E3.22570
G1 X78.191 Y111.134 E3.27352
G1 X77.188 Y110.575 E3.32135
G1 X76.802 Y110.311 E3.34080
G1 X76.758 Y110.356 E3.34342
G1 X76.252 Y109.936 E3.37076
G1 X76.252 Y109.936 E3.37076
G1 X75.356 Y109.192 E3.41926
G1 X74.544 Y108.380 E3.46708
G1 X73.810 Y107.496 E3.51490
G1 X73.161 Y106.548 E3.56273
G1 X72.602 Y105.544 E3.61055
G1 X72.137 Y104.493 E3.65837
G1 X71.772 Y103.404 E3.70620
G1 X71.509 Y102.286 E3.75402
G1 X71.351 Y101.148 E3.80184
G1 X71.298 Y100.002 E3.84961
G1 X71.348 Y98.886 E3.89612
G1 X71.498 Y97.780 E3.94258
G1 X71.746 Y96.692 E3.98904
G1 X72.091 Y95.630 E4.03549
G1 X72.529 Y94.604 E4.08195
G1 X73.058 Y93.621 E4.12841
G1 X73.673 Y92.690 E4.17487
G1 X74.369 Y91.817 E4.22132
G1 X75.140 Y91.011 E4.26778
G1 X75.671 Y91.566 F7800.000
G1 X76.460 Y90.877 F540.000 E4.31137
G1 X77.307 Y90.262 E4.35495
G1 X78.206 Y89.725 E4.39854
G1 X79.149 Y89.270 E4.44212
G1 X80.129 Y88.903 E4.48571
G1 X81.139 Y88.624 E4.52930
G1 X82.169 Y88.437 E4.57288
G1 X83.212 Y88.343 E4.61647
G1 X84.259 Y88.343 E4.66006
G1 X85.302 Y88.437 E4.70364
G1 X85.929 Y88.551 E4.73020
G1 X85.929 Y88.551 E4.73020
G1 X86.332 Y88.624 E4.74723
G1 X87.341 Y88.903 E4.79082
G1 X88.321 Y89.270 E4.83440
G1 X89.265 Y89.725 E4.87799
G1 X90.164 Y90.262 E4.92157
G1 X91.011 Y90.877 E4.96516
G1 X91.799 Y91.566 E5.00875
G1 X92.523 Y92.323 E5.05233
G1 X93.176 Y93.142 E5.09592
G1 X93.753 Y94.015 E5.13951
G1 X94.456 Y95.323 E5.20131
G1 X94.413 Y95.323 E5.20308
G1 X94.660 Y95.900 E5.22923
G1 X94.984 Y96.896 E5.27281
G1 X95.217 Y97.917 E5.31640
G1 X95.357 Y98.954 E5.35998
G1 X95.404 Y100.001 E5.40360
G1 X95.355 Y101.077 E5.44844
G1 X95.206 Y102.145 E5.49331
G1 X94.959 Y103.194 E5.53817
G1 X94.616 Y104.216 E5.58304
G1 X94.181 Y105.202 E5.62791
G1 X93.657 Y106.143 E5.67278
G1 X93.047 Y107.033 E5.71764
G1 X92.359 Y107.862 E5.76251
G1 X91.597 Y108.624 E5.80738
G1 X90.767 Y109.313 E5.85225
G1 X89.878 Y109.922 E5.89711
G1 X88.937 Y110.446 E5.94198
G1 X87.951 Y110.881 E5.98685
G1 X86.929 Y111.224 E6.03172
G1 X85.879 Y111.471 E6.07659
G1 X84.812 Y111.620 E6.12145
G1 X83.735 Y111.669 E6.16632
G1 X82.659 Y111.620 E6.21119
G1 X81.591 Y111.471 E6.25606
G1 X80.542 Y111.224 E6.30092
G1 X79.520 Y110.881 E6.34579
G1 X78.534 Y110.446 E6.39066
G1 X77.592 Y109.922 E6.43553
G1 X76.710 Y109.317 E6.48004
G1 X76.710 Y109.318 E6.48007
G1 X76.703 Y109.313 E6.48042
G1 X76.703 Y109.313 E6.48042
G1 X75.874 Y108.624 E6.52529
G1 X75.112 Y107.862 E6.57016
G1 X74.423 Y107.033 E6.61503
G1 X73.814 Y106.143 E6.65989
G1 X73.290 Y105.202 E6.70476
G1 X72.854 Y104.216 E6.74963
G1 X72.512 Y103.194 E6.79450
G1 X72.265 Y102.145 E6.83936
G1 X72.116 Y101.077 E6.88423
G1 X72.066 Y100.001 E6.92907
G1 X72.113 Y98.954 E6.97268
G1 X72.254 Y97.917 E7.01627
G1 X72.487 Y96.896 E7.05986
G1 X72.810 Y95.900 E7.10344
G1 X73.222 Y94.937 E7.14703
G1 X73.718 Y94.015 E7.19062
G1 X74.295 Y93.142 E7.23420
G1 X74.948 Y92.323 E7.27779
G1 X75.671 Y91.566 E7.32137
G1 X76.202 Y92.122 F7800.000
G1 X76.939 Y91.478 F540.000 E7.36209
G1 X77.730 Y90.903 E7.40281
G1 X78.570 Y90.402 E7.44352
G1 X79.451 Y89.977 E7.48424
G1 X80.367 Y89.634 E7.52495
G1 X81.310 Y89.373 E7.56567
G1 X82.272 Y89.199 E7.60638
G1 X83.246 Y89.111 E7.64710
G1 X84.224 Y89.111 E7.68781
G1 X85.198 Y89.199 E7.72853
G1 X86.161 Y89.373 E7.76924
G1 X87.104 Y89.634 E7.80996
G1 X88.019 Y89.977 E7.85068
G1 X88.901 Y90.402 E7.89139
G1 X89.740 Y90.903 E7.93211
G1 X90.532 Y91.478 E7.97282
G1 X91.268 Y92.122 E8.01354
G1 X91.944 Y92.829 E8.05425
G1 X92.554 Y93.593 E8.09497
G1 X93.093 Y94.410 E8.13568
G1 X93.171 Y94.555 E8.14255
G1 X93.171 Y94.555 E8.14255
G1 X93.556 Y95.271 E8.17640
G1 X93.941 Y96.170 E8.21712
G1 X94.243 Y97.100 E8.25783
G1 X94.461 Y98.054 E8.29855
G1 X94.592 Y99.023 E8.33926
G1 X94.636 Y100.001 E8.37999
G1 X94.589 Y101.006 E8.42189
G1 X94.450 Y102.003 E8.46380
G1 X94.220 Y102.983 E8.50571
G1 X93.900 Y103.938 E8.54763
G1 X93.493 Y104.859 E8.58954
G1 X93.003 Y105.739 E8.63145
G1 X92.434 Y106.569 E8.67336
G1 X91.791 Y107.344 E8.71528
G1 X91.079 Y108.056 E8.75719
G1 X90.304 Y108.699 E8.79910
G1 X89.474 Y109.268 E8.84101
G1 X88.594 Y109.758 E8.88292
G1 X87.673 Y110.165 E8.92484
G1 X86.718 Y110.485 E8.96675
G1 X85.738 Y110.715 E9.00866
G1 X84.741 Y110.854 E9.05057
G1 X83.735 Y110.901 E9.09249
G1 X82.730 Y110.854 E9.13440
G1 X81.732 Y110.715 E9.17631
G1 X80.752 Y110.485 E9.21822
G1 X79.798 Y110.165 E9.26013
G1 X78.877 Y109.758 E9.30205
G1 X77.997 Y109.268 E9.34396
G1 X77.166 Y108.699 E9.38587
G1 X76.662 Y108.280 E9.41318
G1 X76.662 Y108.280 E9.41318
G1 X76.392 Y108.056 E9.42778
G1 X75.680 Y107.344 E9.46970
G1 X75.037 Y106.569 E9.51161
G1 X74.468 Y105.739 E9.55352
G1 X73.978 Y104.859 E9.59543
G1 X73.571 Y103.938 E9.63734
G1 X73.251 Y102.983 E9.67926
G1 X73.020 Y102.003 E9.72117
G1 X72.881 Y101.006 E9.76308
G1 X72.835 Y100.001 E9.80498
G1 X72.879 Y99.023 E9.84571
G1 X73.010 Y98.054 E9.88642
G1 X73.228 Y97.100 E9.92714
G1 X73.530 Y96.170 E9.96785
G1 X73.914 Y95.271 E10.00857
G1 X74.378 Y94.410 E10.04929
G1 X74.917 Y93.593 E10.09000
G1 X75.526 Y92.829 E10.13072
G1 X76.202 Y92.122 E10.17143
G1 X76.939 Y91.906 F7800.000
G1 F1800.000 E9.17143
G92 E0
G1 X124.243 Y71.885 F7800.000
G1 F1800.000 E1.00000
G1 X125.683 Y72.473 F540.000 E1.06471
G1 X127.089 Y73.134 E1.12942
G1 X128.460 Y73.868 E1.19413
G1 X129.791 Y74.671 E1.25884
G1 X131.078 Y75.542 E1.32355
G1 X132.319 Y76.478 E1.38827
G1 X133.510 Y77.478 E1.45298
G1 X134.648 Y78.537 E1.51769
G1 X135.729 Y79.654 E1.58240
G1 X136.751 Y80.825 E1.64711
G1 X137.712 Y82.048 E1.71182
G1 X138.607 Y83.318 E1.77654
G1 X139.436 Y84.633 E1.84125
G1 X140.196 Y85.989 E1.90596
G1 X140.885 Y87.383 E1.97066
G1 X141.500 Y88.810 E2.03538
G1 X142.041 Y90.268 E2.10009
G1 X142.507 Y91.751 E2.16480
G1 X142.894 Y93.256 E2.22951
G1 X143.209 Y94.804 E2.29526
G1 X145.214 Y106.176 E2.77595
G1 X144.401 Y106.320 E2.81032
G1 X144.910 Y109.208 E2.93242
G1 X141.996 Y112.122 E3.10398
G1 X141.647 Y112.428 E3.12329
G1 X141.314 Y112.651 E3.13995
G1 X140.955 Y112.828 E3.15662
G1 X140.576 Y112.956 E3.17328
G1 X140.184 Y113.034 E3.18994
G1 X139.721 Y113.065 E3.20925
G1 X136.989 Y113.065 E3.32297
G1 X136.488 Y113.029 E3.34387
G1 X136.064 Y112.938 E3.36192
G1 X135.658 Y112.787 E3.37996
G1 X135.277 Y112.581 E3.39801
G1 X134.928 Y112.323 E3.41605
G1 X134.620 Y112.018 E3.43410
G1 X134.358 Y111.672 E3.45214
G1 X134.115 Y111.235 E3.47299
G1 X130.331 Y103.120 E3.84571
G1 X130.310 Y103.079 E3.84762
G1 X129.777 Y102.035 E3.89642
G1 X129.736 Y101.964 E3.89981
G1 X129.125 Y100.958 E3.94881
G1 X129.079 Y100.888 E3.95230
G1 X128.394 Y99.926 E4.00148
G1 X128.343 Y99.858 E4.00500
G1 X127.590 Y98.950 E4.05413
G1 X127.535 Y98.885 E4.05768
G1 X126.717 Y98.034 E4.10680
G1 X126.660 Y97.975 E4.11020
G1 X126.598 Y97.919 E4.11369
G1 X125.720 Y97.129 E4.16286
G1 X125.648 Y97.072 E4.16667
G1 X124.713 Y96.348 E4.21591
G1 X124.636 Y96.295 E4.21979
G1 X123.652 Y95.642 E4.26894
G1 X123.570 Y95.595 E4.27290
G1 X122.543 Y95.016 E4.32196
G1 X122.456 Y94.973 E4.32601
G1 X121.392 Y94.473 E4.37494
G1 X121.299 Y94.436 E4.37912
G1 X120.205 Y94.015 E4.42791
G1 X120.106 Y93.984 E4.43221
G1 X118.989 Y93.646 E4.48083
G1 X118.884 Y93.620 E4.48530
G1 X117.750 Y93.366 E4.53371
G1 X117.639 Y93.346 E4.53837
G1 X116.495 Y93.177 E4.58652
G1 X116.378 Y93.165 E4.59142
G1 X115.232 Y93.079 E4.63924
G1 X115.108 Y93.075 E4.64441
G1 X113.969 Y93.074 E4.69183
G1 X113.855 Y93.078 E4.69657
G1 X113.785 Y93.082 E4.69948
G1 X112.753 Y93.156 E4.74258
G1 X112.528 Y93.180 E4.75200
G1 X111.483 Y93.332 E4.79596
G1 X111.260 Y93.373 E4.80537
G1 X110.229 Y93.602 E4.84933
G1 X110.011 Y93.659 E4.85875
G1 X108.999 Y93.962 E4.90271
G1 X108.785 Y94.036 E4.91213
G1 X107.798 Y94.412 E4.95608
G1 X107.591 Y94.501 E4.96550
G1 X106.634 Y94.949 E5.00946
G1 X106.434 Y95.054 E5.01888
G1 X105.512 Y95.570 E5.06284
G1 X105.320 Y95.689 E5.07225
G1 X104.439 Y96.271 E5.11621
G1 X104.256 Y96.405 E5.12563
G1 X103.420 Y97.050 E5.16959
G1 X103.248 Y97.196 E5.17900
G1 X102.461 Y97.901 E5.22296
G1 X102.301 Y98.060 E5.23238
G1 X101.567 Y98.820 E5.27634
G1 X101.419 Y98.991 E5.28576
G1 X100.743 Y99.802 E5.32971
G1 X100.608 Y99.984 E5.33913
G1 X99.994 Y100.842 E5.38309
G1 X99.873 Y101.034 E5.39251
G1 X99.322 Y101.935 E5.43647
G1 X99.216 Y102.135 E5.44588
G1 X98.733 Y103.074 E5.48984
G1 X98.642 Y103.281 E5.49926
G1 X98.229 Y104.252 E5.54322
G1 X98.154 Y104.466 E5.55264
G1 X97.812 Y105.465 E5.59660
G1 X97.754 Y105.684 E5.60601
G1 X97.486 Y106.705 E5.64997
G1 X97.444 Y106.928 E5.65939
G1 X97.252 Y107.966 E5.70335
G1 X97.227 Y108.191 E5.71277
G1 X97.111 Y109.240 E5.75673
G1 X97.065 Y110.486 E5.80859
G1 X97.065 Y126.939 E6.49352
G1 X96.727 Y127.112 E6.50934
G1 X95.343 Y127.733 E6.57246
G1 X93.930 Y128.283 E6.63558
G1 X92.491 Y128.761 E6.69870
G1 X91.030 Y129.166 E6.76182
G1 X89.550 Y129.496 E6.82494
G1 X88.056 Y129.752 E6.88806
G1 X86.550 Y129.932 E6.95118
G1 X85.037 Y130.036 E7.01430
G1 X83.521 Y130.063 E7.07742
G1 X82.006 Y130.014 E7.14054
G1 X80.495 Y129.889 E7.20366
G1 X78.992 Y129.688 E7.26678
G1 X77.501 Y129.411 E7.32990
G1 X76.026 Y129.059 E7.39302
G1 X74.571 Y128.633 E7.45614
G1 X73.139 Y128.135 E7.51926
G1 X71.734 Y127.565 E7.58238
G1 X70.359 Y126.925 E7.64550
G1 X69.019 Y126.216 E7.70862
G1 X67.716 Y125.441 E7.77174
G1 X66.453 Y124.601 E7.83486
G1 X65.235 Y123.698 E7.89798
G1 X64.064 Y122.735 E7.96110
G1 X62.942 Y121.714 E8.02422
G1 X61.874 Y120.638 E8.08734
G1 X60.861 Y119.510 E8.15046
G1 X59.907 Y118.332 E8.21358
G1 X59.013 Y117.107 E8.27669
G1 X58.182 Y115.839 E8.33981
G1 X57.416 Y114.530 E8.40294
G1 X56.717 Y113.185 E8.46605
G1 X56.086 Y111.805 E8.52917
G1 X55.526 Y110.396 E8.59229
G1 X55.038 Y108.961 E8.65541
G1 X54.623 Y107.503 E8.71853
G1 X54.281 Y106.025 E8.78165
G1 X54.015 Y104.532 E8.84477
G1 X53.824 Y103.028 E8.90789
G1 X53.710 Y101.516 E8.97101
G1 X53.671 Y99.976 E9.03515
G1 X53.671 Y84.035 E9.69873
G1 X53.708 Y82.997 E9.74196
G1 X53.815 Y81.999 E9.78375
G1 X53.994 Y81.011 E9.82554
G1 X54.242 Y80.038 E9.86733
G1 X54.559 Y79.086 E9.90912
G1 X54.943 Y78.158 E9.95091
G1 X55.392 Y77.261 E9.99270
G1 X55.905 Y76.397 E10.03449
G1 X56.477 Y75.573 E10.07628
G1 X57.107 Y74.791 E10.11807
G1 X57.791 Y74.056 E10.15986
G1 X58.526 Y73.372 E10.20165
G1 X59.308 Y72.742 E10.24344
G1 X60.132 Y72.170 E10.28523
G1 X60.996 Y71.657 E10.32702
G1 X61.893 Y71.208 E10.36881
G1 X62.821 Y70.824 E10.41060
G1 X63.773 Y70.507 E10.45239
G1 X64.746 Y70.259 E10.49418
G1 X65.734 Y70.080 E10.53596
G1 X66.732 Y69.973 E10.57775
G1 X67.770 Y69.936 E10.62098
G1 X113.572 Y69.936 E12.52760
G1 X115.151 Y69.977 E12.59336
G1 X116.701 Y70.097 E12.65807
G1 X118.242 Y70.298 E12.72278
G1 X119.771 Y70.578 E12.78749
G1 X121.284 Y70.936 E12.85220
G1 X122.776 Y71.372 E12.91691
G1 X124.243 Y71.885 E12.98162
G1 X124.515 Y71.167 F7800.000
G1 X125.991 Y71.770 F540.000 E13.04799
G1 X127.434 Y72.448 E13.11435
G1 X128.840 Y73.200 E13.18072
G1 X130.205 Y74.024 E13.24708
G1 X131.525 Y74.917 E13.31344
G1 X132.798 Y75.877 E13.37981
G1 X134.019 Y76.902 E13.44617
G1 X135.186 Y77.989 E13.51254
G1 X136.295 Y79.134 E13.57890
G1 X137.343 Y80.335 E13.64526
G1 X138.328 Y81.589 E13.71163
G1 X139.246 Y82.892 E13.77800
G1 X140.096 Y84.241 E13.84436
G1 X140.876 Y85.631 E13.91072
G1 X141.582 Y87.061 E13.97708
G1 X142.213 Y88.525 E14.04345
G1 X142.768 Y90.019 E14.10982
G1 X143.245 Y91.540 E14.17618
G1 X143.643 Y93.084 E14.24255
G1 X143.963 Y94.661 E14.30954
G1 X146.103 Y106.799 E14.82260
G1 X145.290 Y106.942 E14.85697
G1 X145.736 Y109.468 E14.96374
G1 X142.521 Y112.683 E15.15299
G1 X142.116 Y113.039 E15.17544
G1 X141.699 Y113.317 E15.19629
G1 X141.250 Y113.539 E15.21715
G1 X140.775 Y113.700 E15.23800
G1 X140.284 Y113.797 E15.25885
G1 X139.746 Y113.833 E15.28130
G1 X136.962 Y113.833 E15.39720
G1 X136.379 Y113.791 E15.42151
G1 X135.849 Y113.677 E15.44409
G1 X135.340 Y113.488 E15.46668
G1 X134.863 Y113.230 E15.48926
G1 X134.427 Y112.907 E15.51185
G1 X134.042 Y112.525 E15.53443
G1 X133.714 Y112.093 E15.55702
G1 X133.431 Y111.584 E15.58127
G1 X129.640 Y103.454 E15.95469
G1 X129.625 Y103.425 E15.95601
G1 X129.101 Y102.400 E16.00396
G1 X129.074 Y102.354 E16.00618
G1 X128.475 Y101.367 E16.05423
G1 X128.444 Y101.320 E16.05655
G1 X127.773 Y100.378 E16.10470
G1 X127.739 Y100.333 E16.10706
G1 X127.002 Y99.443 E16.15516
G1 X126.965 Y99.400 E16.15754
G1 X126.165 Y98.567 E16.20563
G1 X126.126 Y98.527 E16.20793
G1 X126.084 Y98.488 E16.21032
G1 X125.225 Y97.716 E16.25840
G1 X125.175 Y97.677 E16.26103
G1 X124.262 Y96.969 E16.30913
G1 X124.208 Y96.933 E16.31184
G1 X123.247 Y96.295 E16.35985
G1 X123.189 Y96.261 E16.36264
G1 X122.186 Y95.696 E16.41055
G1 X122.124 Y95.666 E16.41344
G1 X121.085 Y95.177 E16.46123
G1 X121.018 Y95.150 E16.46424
G1 X119.949 Y94.740 E16.51189
G1 X119.878 Y94.717 E16.51503
G1 X118.786 Y94.386 E16.56252
G1 X118.709 Y94.367 E16.56582
G1 X117.600 Y94.119 E16.61311
G1 X117.517 Y94.105 E16.61660
G1 X116.400 Y93.939 E16.66364
G1 X116.311 Y93.930 E16.66737
G1 X115.191 Y93.846 E16.71410
G1 X115.095 Y93.843 E16.71810
G1 X113.982 Y93.842 E16.76442
G1 X113.889 Y93.845 E16.76832
G1 X113.833 Y93.848 E16.77065
G1 X112.821 Y93.921 E16.81289
G1 X112.624 Y93.942 E16.82114
G1 X111.607 Y94.090 E16.86390
G1 X111.412 Y94.126 E16.87214
G1 X110.410 Y94.348 E16.91490
G1 X110.218 Y94.398 E16.92315
G1 X109.234 Y94.693 E16.96591
G1 X109.047 Y94.758 E16.97416
